achtelbass/static_inbox/images/bass.svg

<?xml version="1.0" encoding="UTF-8" standalone="no"?>
<!-- Created with Inkscape (http://www.inkscape.org/) -->

<svg
   xmlns:dc="http://purl.org/dc/elements/1.1/"
   xmlns:cc="http://creativecommons.org/ns#"
   xmlns:rdf="http://www.w3.org/1999/02/22-rdf-syntax-ns#"
   xmlns:svg="http://www.w3.org/2000/svg"
   xmlns="http://www.w3.org/2000/svg"
   xmlns:sodipodi="http://sodipodi.sourceforge.net/DTD/sodipodi-0.dtd"
   xmlns:inkscape="http://www.inkscape.org/namespaces/inkscape"
   id="svg2"
   version="1.1" inkscape:version="0.48.1 r9760"
   sodipodi:docname="Music-sixteenthnote.svg">
  <metadata
     id="metadata8">
    <rdf:RDF>
      <cc:Work
         rdf:about="">
        <dc:format>image/svg+xml</dc:format>
        <dc:type
           rdf:resource="http://purl.org/dc/dcmitype/StillImage" />
        <dc:title></dc:title>
      </cc:Work>
    </rdf:RDF>
  </metadata>
  <defs
     id="defs6" />
  <sodipodi:namedview
     pagecolor="#ffffff"
     bordercolor="#666666"
     borderopacity="1"
     objecttolerance="10"
     gridtolerance="10"
     guidetolerance="10"
     inkscape:pageopacity="0"
     inkscape:pageshadow="2"
     inkscape:window-width="1920"
     inkscape:window-height="1031"
     id="namedview4"
     showgrid="false"
     showguides="true"
     inkscape:guide-bbox="true"
     inkscape:zoom="4"
     inkscape:cx="162.07572"
     inkscape:cy="90.555691"
     inkscape:window-x="0"
     inkscape:window-y="24"
     inkscape:window-maximized="1"
     inkscape:current-layer="svg2"
     inkscape:snap-bbox="true"
     inkscape:bbox-paths="true"
     inkscape:snap-bbox-edge-midpoints="true">
    <sodipodi:guide
       orientation="1,0"
       position="110.92586,46.046988"
       id="guide2987" />
    <sodipodi:guide
       orientation="1,0"
       position="112.99129,70.285442"
       id="guide2989" />
  </sodipodi:namedview>
  <g
     id="g3821">
<path fill="#000000" stroke="none" d="M422.2765783632277,108.7C422.6365783632277,108.67,423.9265783632277,108.7,424.4065783632277,108.73C428.00657836322773,109.15,430.4365783632277,110.83,431.3365783632277,113.59C431.6065783632277,114.43,431.69657836322773,115.09,431.69657836322773,116.17C431.69657836322773,117.07000000000001,431.66657836322776,117.52,431.5165783632277,118.33C430.73657836322775,122.11,427.9765783632277,125.41,423.1465783632277,128.29C421.4065783632277,129.34,419.2765783632277,130.42,416.9665783632277,131.41C416.5765783632277,131.59,416.2165783632277,131.74,416.1565783632277,131.77C416.0965783632277,131.8,416.00657836322773,131.83,415.9765783632277,131.83C415.8265783632277,131.83,415.6465783632277,131.65,415.6465783632277,131.5C415.6465783632277,131.35,415.7065783632277,131.29,416.1565783632277,131.02C419.1565783632277,129.25,421.2865783632277,127.81000000000002,422.9965783632277,126.28000000000002C423.5065783632277,125.83000000000001,424.58657836322766,124.78000000000002,424.9465783632277,124.33000000000001C426.83657836322766,122.14000000000001,427.82657836322767,120.01000000000002,428.09657836322765,117.55000000000001C428.15657836322765,117.13000000000001,428.15657836322765,115.78000000000002,428.09657836322765,115.36000000000001C427.85657836322764,113.35000000000001,427.16657836322764,111.73000000000002,426.05657836322763,110.65000000000002C425.42657836322763,110.02000000000002,424.7665783632276,109.63000000000002,423.98657836322764,109.45000000000002C422.36657836322763,109.06000000000002,420.6265783632276,109.60000000000002,419.42657836322763,110.89000000000001C418.8865783632276,111.49000000000001,418.3765783632276,112.36000000000001,418.10657836322764,113.11000000000001L418.01657836322767,113.32000000000001L418.2565783632277,113.2C418.64657836322766,112.99000000000001,418.88657836322767,112.96000000000001,419.3665783632277,112.96000000000001C419.6665783632277,112.96000000000001,419.8165783632277,112.96000000000001,420.0265783632277,113.02000000000001C421.94657836322773,113.50000000000001,422.87657836322774,115.57000000000001,421.9765783632277,117.4C421.5265783632277,118.39,420.5665783632277,119.02000000000001,419.5165783632277,119.11C418.0465783632277,119.2,416.6065783632277,118.24,416.12657836322774,116.86C415.94657836322773,116.29,415.91657836322776,115.54,416.09657836322776,114.58C416.48657836322775,112.33,417.92657836322775,110.38,419.90657836322777,109.39C420.59657836322776,109.03,421.49657836322774,108.79,422.27657836322777,108.7ZM433.8565783632277,111.22C434.6965783632277,111.01,435.5665783632277,111.52,435.7465783632277,112.36C436.0465783632277,113.53,435.02657836322766,114.55,433.8565783632277,114.25C432.8665783632277,114.04,432.3565783632277,112.93,432.8365783632277,112C433.0165783632277,111.61,433.43657836322774,111.31,433.8565783632277,111.22ZM433.8565783632277,118.72C434.6965783632277,118.51,435.5665783632277,119.02,435.7465783632277,119.86C435.95657836322766,120.73,435.4465783632277,121.57,434.6065783632277,121.75C433.7365783632277,121.96,432.8965783632277,121.45,432.7165783632277,120.61C432.50657836322773,119.77,433.0165783632277,118.9,433.8565783632277,118.72Z" style="-webkit-tap-highlight-color: rgba(0, 0, 0, 0);"></path> 
  </g>
</svg>

<?xml version="1.0" encoding="UTF-8" standalone="no"?>
<!-- Created with Inkscape (http://www.inkscape.org/) -->

<svg
   xmlns:dc="http://purl.org/dc/elements/1.1/"
   xmlns:cc="http://creativecommons.org/ns#"
   xmlns:rdf="http://www.w3.org/1999/02/22-rdf-syntax-ns#"
   xmlns:svg="http://www.w3.org/2000/svg"
   xmlns="http://www.w3.org/2000/svg"
   xmlns:sodipodi="http://sodipodi.sourceforge.net/DTD/sodipodi-0.dtd"
   xmlns:inkscape="http://www.inkscape.org/namespaces/inkscape"
   id="svg2"
   version="1.1"
   inkscape:version="0.91 r13725"
   sodipodi:docname="bass.svg"
   width="20.152998"
   height="23.142426">
  <metadata
     id="metadata8">
    <rdf:RDF>
      <cc:Work
         rdf:about="">
        <dc:format>image/svg+xml</dc:format>
        <dc:type
           rdf:resource="http://purl.org/dc/dcmitype/StillImage" />
        <dc:title></dc:title>
      </cc:Work>
    </rdf:RDF>
  </metadata>
  <defs
     id="defs6" />
  <sodipodi:namedview
     pagecolor="#ffffff"
     bordercolor="#666666"
     borderopacity="1"
     objecttolerance="10"
     gridtolerance="10"
     guidetolerance="10"
     inkscape:pageopacity="0"
     inkscape:pageshadow="2"
     inkscape:window-width="1680"
     inkscape:window-height="987"
     id="namedview4"
     showgrid="false"
     showguides="true"
     inkscape:guide-bbox="true"
     inkscape:zoom="4"
     inkscape:cx="-72.28799"
     inkscape:cy="-42.715145"
     inkscape:window-x="-8"
     inkscape:window-y="-8"
     inkscape:window-maximized="1"
     inkscape:current-layer="svg2"
     inkscape:snap-bbox="true"
     inkscape:bbox-paths="true"
     inkscape:snap-bbox-edge-midpoints="true"
     fit-margin-top="0"
     fit-margin-left="0"
     fit-margin-right="0"
     fit-margin-bottom="0">
    <sodipodi:guide
       orientation="1,0"
       position="-304.72072,77.876998"
       id="guide2987" />
    <sodipodi:guide
       orientation="1,0"
       position="-302.65529,102.11544"
       id="guide2989" />
  </sodipodi:namedview>
  <g
     id="g3821"
     transform="translate(-415.64658,-108.68757)">
    <path
       d="m 422.27658,108.7 c 0.36,-0.03 1.65,0 2.13,0.03 3.6,0.42 6.03,2.1 6.93,4.86 0.27,0.84 0.36,1.5 0.36,2.58 0,0.9 -0.03,1.35 -0.18,2.16 -0.78,3.78 -3.54,7.08 -8.37,9.96 -1.74,1.05 -3.87,2.13 -6.18,3.12 -0.39,0.18 -0.75,0.33 -0.81,0.36 -0.06,0.03 -0.15,0.06 -0.18,0.06 -0.15,0 -0.33,-0.18 -0.33,-0.33 0,-0.15 0.06,-0.21 0.51,-0.48 3,-1.77 5.13,-3.21 6.84,-4.74 0.51,-0.45 1.59,-1.5 1.95,-1.95 1.89,-2.19 2.88,-4.32 3.15,-6.78 0.06,-0.42 0.06,-1.77 0,-2.19 -0.24,-2.01 -0.93,-3.63 -2.04,-4.71 -0.63,-0.63 -1.29,-1.02 -2.07,-1.2 -1.62,-0.39 -3.36,0.15 -4.56,1.44 -0.54,0.6 -1.05,1.47 -1.32,2.22 l -0.09,0.21 0.24,-0.12 c 0.39,-0.21 0.63,-0.24 1.11,-0.24 0.3,0 0.45,0 0.66,0.06 1.92,0.48 2.85,2.55 1.95,4.38 -0.45,0.99 -1.41,1.62 -2.46,1.71 -1.47,0.09 -2.91,-0.87 -3.39,-2.25 -0.18,-0.57 -0.21,-1.32 -0.03,-2.28 0.39,-2.25 1.83,-4.2 3.81,-5.19 0.69,-0.36 1.59,-0.6 2.37,-0.69 z m 11.58,2.52 c 0.84,-0.21 1.71,0.3 1.89,1.14 0.3,1.17 -0.72,2.19 -1.89,1.89 -0.99,-0.21 -1.5,-1.32 -1.02,-2.25 0.18,-0.39 0.6,-0.69 1.02,-0.78 z m 0,7.5 c 0.84,-0.21 1.71,0.3 1.89,1.14 0.21,0.87 -0.3,1.71 -1.14,1.89 -0.87,0.21 -1.71,-0.3 -1.89,-1.14 -0.21,-0.84 0.3,-1.71 1.14,-1.89 z"
       style="fill:#000000;stroke:none"
       id="path3354"
       inkscape:connector-curvature="0" />
  </g>
</svg>
